cy/tasks-line.svg

<svg viewBox="0 0 36 36" xmlns="http://www.w3.org/2000/svg" height="1em" width="1em">
  <path class="clr-i-outline clr-i-outline-path-1" d="M29.29 34H6.71A1.7 1.7 0 0 1 5 32.31V6.69A1.75 1.75 0 0 1 7 5h2v2H7v25h22V7h-2V5h2.25A1.7 1.7 0 0 1 31 6.69v25.62A1.7 1.7 0 0 1 29.29 34Z"/>
  <path class="clr-i-outline clr-i-outline-path-2" d="M16.66 25.76 11.3 20.4a1 1 0 0 1 1.42-1.4l3.94 3.94 8.64-8.64a1 1 0 0 1 1.41 1.41Z"/>
  <path class="clr-i-outline clr-i-outline-path-3" d="M26 11H10V7.33A2.34 2.34 0 0 1 12.33 5h1.79a4 4 0 0 1 7.75 0h1.79A2.34 2.34 0 0 1 26 7.33ZM12 9h12V7.33a.33.33 0 0 0-.33-.33H20V6a2 2 0 0 0-4 0v1h-3.67a.33.33 0 0 0-.33.33Z"/>
  <path fill="none" d="M0 0h36v36H0z"/>
</svg>

<svg version="1.1" viewBox="0 0 36 36" preserveAspectRatio="xMidYMid meet" xmlns="http://www.w3.org/2000/svg" height="1em" width="1em">
  <path class="clr-i-outline clr-i-outline-path-1" d="M29.29,34H6.71A1.7,1.7,0,0,1,5,32.31V6.69A1.75,1.75,0,0,1,7,5H9V7H7V32H29V7H27V5h2.25A1.7,1.7,0,0,1,31,6.69V32.31A1.7,1.7,0,0,1,29.29,34Z"/>
  <path class="clr-i-outline clr-i-outline-path-2" d="M16.66,25.76,11.3,20.4A1,1,0,0,1,12.72,19l3.94,3.94,8.64-8.64a1,1,0,0,1,1.41,1.41Z"/>
  <path class="clr-i-outline clr-i-outline-path-3" d="M26,11H10V7.33A2.34,2.34,0,0,1,12.33,5h1.79a4,4,0,0,1,7.75,0h1.79A2.34,2.34,0,0,1,26,7.33ZM12,9H24V7.33A.33.33,0,0,0,23.67,7H20V6a2,2,0,0,0-4,0V7H12.33a.33.33,0,0,0-.33.33Z"/>
  <rect x="0" y="0" width="36" height="36" fill-opacity="0"/>
</svg>
